public/img/values/value-4.svg

<svg width="54" height="54" viewBox="0 0 54 54" fill="none" xmlns="http://www.w3.org/2000/svg">
<path d="M51.0002 11H45.6668V35H11.0002V40.3334C11.0002 41.8 12.2002 43 13.6668 43H43.0002L53.6668 53.6667V13.6667C53.6668 12.2 52.4668 11 51.0002 11ZM40.3335 27V3.00004C40.3335 1.53337 39.1335 0.333374 37.6668 0.333374H3.00016C1.5335 0.333374 0.333496 1.53337 0.333496 3.00004V40.3334L11.0002 29.6667H37.6668C39.1335 29.6667 40.3335 28.4667 40.3335 27Z" fill="#EB2629"/>
</svg>

<svg width="54" height="54" fill="none" xmlns="http://www.w3.org/2000/svg"><path d="M51 11h-5.33v24H11v5.33C11 41.8 12.2 43 13.67 43H43l10.67 10.67v-40c0-1.47-1.2-2.67-2.67-2.67ZM40.33 27V3c0-1.47-1.2-2.67-2.66-2.67H3A2.67 2.67 0 0 0 .33 3v37.33L11 29.67h26.67c1.46 0 2.66-1.2 2.66-2.67Z" fill="#EB2629"/></svg>
